!!!ONB: MCCC : IJS0054_03 : Extracted Monophonic Melody
!!!COM: Sibelius, Jean
!!!OPR: Piano Sonata
!!!OMV: 3
!!!SCT: Op.12
!!!ODT: 1893///
**kern
*staff1
=1
*clefG2
*k[b-]
*F:
*M2/4
8B-
8A
8G
8F
=2
4C
8F
8G
=3
8B-
16A
16B-
8A
8G
=4
4c
8F
8G
=5
8B-
16A
16B-
8A
8G
=6
4c
8F
8G
=7
4c
8F
8G
=8
2c
=9
8B-
16A
16B-
8A
8G
=10
8d
16B-
16d
4c
=11
8d
16B-
16d
8c
8d
=12
2d
=13
2c
=14
2c
=15
2c
=16
2c
=17
2c
=18
2c[
=19
2c]
=20
2r
=21
8B-
8A
8G
8F
=22
4C
8F
8G
=23
8B-
16A
16B-
8A
8G
=24
4c
8F
8G
=25
8B-
16A
16B-
8A
8G
=26
4c
8F
8G
=27
4c
8F
8G
=28
4c
4d
=29
8e
16d
16e
8d
8c#
=30
8f
16c#
16f
4e
=31
8f
16c#
16f
8e
8f
=32
2f
=33
2e
=34
2e
=35
2e
=36
4.e[
8e]
=37
8d[
16d]
16g
16f
16g
16e
16g
=38
16d
16g
16c
16g
16B
16g
16A
16f#
=39
16d
16f#
16d
16f#
16A
16f#
16A
16f#
=40
16B
16g
16B
16g
16B
16g
16G
16g
=41
8d[
16d]
16g
16f
16g
16e
16g
=42
16d
16f#
16c
16f#
16B
16f#
16A
16f#
=43
16d
16f#
16d
16f#
16c
16f#
16B
16f#
=44
16A
16f#
16B
16f#
16B
16f#
16c
16f#
=45
8d[
16d]
16g
16f
16g
16e
16g
=46
16d
16g
16c
16g
16B
16g
16A
16f#
=47
16d
16f#
16d
16f#
16A
16f#
16A
16f#
=48
16B
16g
16c
16g
16c
16g
16d
16g
=49
8d[
16d]
16g
16f
16g
16e
16g
=50
16d
16g
16c
16g
16B
16g
16c
16g
=51
16e
16a
16e
16a
16g
16a
16f
16a
=52
16e
16a
16d
16a
16c#
16a
16d
16a
=53
8.f
16g
16a
16b-
16g
16b-
=54
16f
16b-
16e
16b-
16d
16b-
16e
16b-
=55
16f
16b-
16f
16b-
8a
8g
=56
16f
16b-
16e
16b-
16d
16b-
16e
16b-
=57
16f
16b-
16f
16b-
16d
16b-
16e
16b-
=58
16f
16b-
16f
16b-
8a
16g
16a
=59
8g
8f
8e
8d
=60
8c
8B
8A
8G
=61
8G[
8G]
8G[
8G]
=62
4G
8G[
8G]
=63
8G
16G[
16G]
8G[
8G]
=64
4G
8C
8D
=65
8G
16G[
16G]
8G[
8G]
=66
4G
8G[
8G]
=67
4G
8G[
8G]
=68
4G
4G
=69
8F
16E
16F
8E
8D
=70
8A
16F
16A
4G
=71
8A
16F
16A
8G
8A
=72
4A
4c
=73
2B
=74
2c
=75
2B
=76
2c
=77
2B[
=78
2B]
=79
[4c
4c_
=80
4c_
4c]
=81
*M4/4
4ff
4b-
4dd
4ff
=82
4ee-
4dd
4cc
4ff
=83
4ff
8ee-
8cc
4dd
4cc
=84
2f
4b-
4dd
=85
4ff
4b-
4dd
4ff
=86
4ee-
4dd
4cc
4ff
=87
4ff
8ee-
8cc
4gg
4aa
=88
4bb-
2ff
4ff
=89
4ff
4ff
4ff
4ff
=90
4ff
4ff
4ff
4ff
=91
4ff
8ff[
8ff]
4ff
4ff
=92
4ff
2ff
4ff
=93
4ff
4b-
4dd
4ff
=94
4gg
4ff
4ee-
4gg
=95
4aa-
8gg
8ee-
4ff
4ee-
=96
4a
4a
4dd
4ff
=97
4aa-
8gg
8ee-
4ff
4aa-
=98
4bb-
4aa
4gg
4bb-
=99
4bb-
4aa
4gg
4bb-
=100
4bb-
4aa
4bb-
4ccc
=101
*M2/4
4eee-
8ee
8dd#
=102
8cc#
8b
8b-
8a-
=103
8cc#
8cc#
8a-
8a-
=104
4b-
8b-
8e-
=105
8.b
16dd#
8ee
8dd#
=106
8cc#
8b
8b-
8a-
=107
8cc#
8cc#
8b
8b-
=108
4a-
8b-
8b
=109
8.cc#
16dd#
8ee
8ee-
=110
8ee-
8ee-
8ee-
8ee-
=111
8ee-
8ee-
8ee-
8ee-
=112
4ee-
8ee-
8e-
=113
8.cc#
16dd#
8ee
8dd#
=114
8cc#
8ee-
8cc#
8b
=115
8.cc#
16dd#
8ee
8dd#
=116
8ee
8dd#
8cc#
8b
=117
8cc#
8cc#
8a-
8a-
=118
4b-
8b
8cc#
=119
8ee-
8ee-
8b-
8b-
=120
4cc
8cc#
8cc#
=121
8.ff
16gg
8aa-
8gg
=122
8aa-
8gg
8ff
8ee
=123
8.ff
16gg
8aa-
8gg
=124
8aa-
8gg
8ff
8ee
=125
8.ff
16gg
8aa-
8gg
=126
8aa-
8gg
8aa-
8bb-
=127
8.ccc
16ccc
8.ccc
16ccc
=128
8.ccc
16ccc
8.ccc
16ccc
=129
8ccc
8ccc
8ccc
8ccc
=130
4aa
8ccc
8ccc
=131
8ccc
16ccc
16ccc
8ccc
8ccc
=132
4ccc
8ccc
8ccc
=133
8ccc
16ccc
16ccc
8ccc
8ccc
=134
4ccc
8ccc
8ccc
=135
4ccc
8ccc
8ccc
=136
2ccc
=137
8ccc
16ccc
16bb-
8ccc
8ccc
=138
8ddd
16bb-
16ddd
4ccc
=139
8ddd
16bb-
16ddd
8ccc
8ddd
=140
2ddd
=141
2c
=142
2c
=143
2c
=144
2c
=145
2c
=146
2c[
=147
2c]
=148
2r
=149
8B-
8A
8G
8F
=150
4cc
8cc[
8cc]
=151
8B-
16A
16B-
8A
8G
=152
4cc
8cc[
8cc]
=153
8B-
16A
16B-
8A
8G
=154
4cc
8cc[
8cc]
=155
4c
8F
8G
=156
4cc[
4cc]
=157
8e
16d
16e
8d
8c#
=158
4cc#[
4cc#]
=159
8f
16c#
16f
8e
8f
=160
2cc#
=161
4e[
4e]
=162
4f[
4f]
=163
4e[
4e]
=164
4f[
4f]
=165
8f
16e-
16f
8e-
8d
=166
8g
16d
16g
4f
=167
8g
16d
16g
8f
8g
=168
4dd[
4dd]
=169
4f#[
4f#]
=170
4g
16g
16g
16g[
16g]
=171
16f#
16f#
16f#
16f#
16f#
16f#
16f#[
16f#]
=172
4g
4b-
=173
16f#
16f#
16f#
16f#
16f#
16f#
16f#[
16f#]
=174
16g
16g
16g[
16g]
16b-
16b-
16b-[
16b-]
=175
16f#
16f#
16f#
16f#
16f#
16f#
16f#[
16f#]
=176
16g
16g
16g[
16g]
16b-
16b-
16b-
16b-
=177
16b-
16b-
16b-[
16b-]
16f#
16f#
16f#[
16f#]
=178
16g
16g
16g[
16g]
16b-
16b-
16b-
16b-
=179
16b-
16b-
16b-[
16b-]
16f#
16f#
16f#[
16f#]
=180
4g
16bb-
16F#
16bb-
16F#
=181
16bb-
16F#
16bb-
16F#
16ff#
16B-
16ff#
16B-
=182
16gg
16B-
16gg
16B-
16aa
16A
16aa
16A
=183
16bb-
16G
16bb-
16G
16bb-
16c
16bb-
16c
=184
16ccc
16c
16ccc
16c
16ccc
16c
16ccc
16c
=185
*M4/4
4ccc
4ff
4aa
4ccc
=186
4bb-
4aa
4gg
4ccc
=187
4ccc
8bb-
8gg
4aa
4gg
=188
2cc
4ff
4aa
=189
4ccc
4ff
4aa
4ccc
=190
4bb-
4aa
4gg
4ccc
=191
4ccc
8bb-
8gg
4ddd
4eee
=192
4fff
2ccc
4ccc
=193
4ccc
4ccc
4ccc
4ccc
=194
4ccc
4ccc
4ccc
4ccc
=195
4ccc
8ccc[
8ccc]
4ccc
4ccc
=196
4ccc
4ccc
4ccc
4ccc
=197
4ccc
4ff
4aa
4ccc
=198
4ddd
4ccc
4bb-
4ddd[
=199
4ddd]
4ccc
4bb-
4ddd
=200
2ccc
2eee-
=201
4ddd
4ccc
4bb-
4ddd
=202
4ccc
2ccc
4eee
=203
4ddd
4ccc
4bb-
4eee
=204
4ccc
4r
2r
=205
*M2/4
8e
16c
16c
8e
8g
=206
8e
8g
8cc
8g
=207
8b-
16g
16g
8b-
8dd
=208
8cc
8ee
8gg
8ee
=209
8dd
16b-
16b-
8dd
8gg
=210
8ee
8gg
8ccc
8gg
=211
8gg
8ccc
8eee
8ccc
=212
8ccc
8eee
8ggg
8eee
=213
8fff
8bb-
8ddd
8fff
=214
8ccc
8ccc
8ccc
8ccc
=215
8ff
8b-
8dd
8ff
=216
8cc
8cc
8cc
8cc
=217
8c
16G
16G
8d
8B-
=218
8c
16G
16G
8d
8B-
=219
8e
16c
16c
8e
8g
=220
8cc
16g
16g
8cc
8ee
=221
8ff
8b-
8dd
8ff
=222
8cc
8cc
8cc
8cc
=223
8ee
8a-
8cc
8ee
=224
8b-
8b-
8b-
8b-
=225
8dd
16cc
16dd
16cc
16b-
16a
16b-
=226
16cc
16dd
16cc
16b-
16a
16g
16a
16b-
=227
8cc
16b-
16cc
16b-
16a
16g
16a
=228
16b-
16cc
16b-
16a
16g
16f
16g
16a
=229
16f
16d
16c
16A
16f
16d
16c
16A
=230
16a
16f
16d
16c
16a
16f
16d
16c
=231
16cc
16a
16f
16d
16cc
16a
16f
16d
=232
16dd
16cc
16a
16f
16dd
16cc
16a
16f
=233
16ff
16ee
16cc
16a
16ff
16ee
16cc
16a
=234
16aa
16gg
16ee
16cc
16aa
16gg
16ee
16cc
=235
16ccc
16bb-
16ff
16dd
16ccc
16bb-
16ff
16dd
=236
16ddd
16ccc
16aa
16ff
16ddd
16ccc
16aa
16ff
=237
16fff
16ddd
16ccc
16aa
16ddd
16ccc
16aa
16ff
=238
16ccc
16aa
16ff
16dd
16aa
16ff
16dd
16cc
=239
16ff
16dd
16cc
16a
16dd
16cc
16a
16f
=240
16cc
16a
16f
16d
16a
16f
16d
16c
=241
4f
4r
=242
4aa
4r
=243
4.f
8CC
==
*-
